X:762
T:Polska efter Casper på Vallen
T:(#144)
R:Polska
Z:C-G Magnusson, 2008-11-21
O:Ransäter, Värmland
S:Efter Lars Caspersson, Ransäter
B:Svenska Låtar Värmland nr 144
M:3/4
L:1/8
Q:130
K:D
d2 c2 d2 | e>d cd e2 | (f2 g)f ed | cd fd A2 | d2 c2 d2 | ed cd e2- |
ef gf ed | ce d2 z2 :: d2 fd f2 | ed cd e2 | ed ef g2 |
fe fg a2 | d2 fd f2 | ed cd e2 | ef ge fd | ec d2 z2 :|
(:musicend:)

(:music:)
